public/feature01.svg

<svg width="61" height="61" viewBox="0 0 61 61" fill="none" xmlns="http://www.w3.org/2000/svg">
<g clip-path="url(#clip0_6511_1798)">
<g clip-path="url(#clip1_6511_1798)">
<mask id="mask0_6511_1798" style="mask-type:luminance" maskUnits="userSpaceOnUse" x="0" y="0" width="60" height="61">
<path d="M59.805 0.919922H0.5V60.225H59.805V0.919922Z" fill="white"/>
</mask>
<g mask="url(#mask0_6511_1798)">
<path d="M38.2126 5.20557H29.6412L19.3555 15.4913L24.4983 18.4913L29.6412 13.3484L40.3555 24.0627L44.2126 28.777L49.784 29.6341L52.3555 24.9199V8.63414L48.0698 5.20557H38.2126Z" fill="#FDC040"/>
<path d="M55.8668 13.2527H53.548L53.5502 9.10724C53.5516 6.32415 51.2888 4.05868 48.5052 4.05731L30.9063 4.04736H30.9041C29.9023 4.04736 28.9603 4.43739 28.2517 5.14594L1.97819 31.4194C1.02486 32.3728 0.5 33.6401 0.5 34.9885C0.5 36.3369 1.02486 37.6041 1.97819 38.5575L19.0288 55.6081C20.0129 56.5922 21.3055 57.084 22.5977 57.084C23.8905 57.084 25.1831 56.5922 26.1672 55.6081L42.7092 39.0661C43.1617 38.6136 43.1617 37.8801 42.7092 37.4282C42.2567 36.9757 41.5233 36.9757 41.0709 37.4282L24.5289 53.9702C23.4642 55.0348 21.7318 55.0348 20.6671 53.9702L3.61655 36.9196C3.10075 36.4038 2.8166 35.7178 2.8166 34.9885C2.8166 34.2591 3.10075 33.5732 3.61655 33.0573L29.8896 6.78431C30.1607 6.51328 30.5208 6.36396 30.9041 6.36396H30.905L48.5039 6.37392C50.0097 6.37437 51.2345 7.60055 51.2336 9.10633L51.2282 18.8126H46.0109C45.5615 18.8126 45.1547 18.6288 44.8607 18.3329C45.3453 18.1252 45.7996 17.8252 46.1945 17.4303C47.8591 15.7652 47.8591 13.0568 46.1945 11.3922C44.5295 9.72712 41.8211 9.72712 40.156 11.3922C38.4914 13.0568 38.4914 15.7652 40.156 17.4303C40.7731 18.0474 41.5342 18.4352 42.3319 18.5949C42.8988 20.0749 44.3336 21.1292 46.0109 21.1292H51.2268L51.2237 26.6817C51.2237 27.065 51.0743 27.4247 50.8033 27.6952L47.6234 30.8756C47.1709 31.3281 47.1709 32.0615 47.6234 32.514C48.0755 32.966 48.8088 32.966 49.2613 32.514L52.4417 29.3337C53.1493 28.6255 53.5398 27.6844 53.5403 26.6831L53.5434 21.1292H55.8668C58.0382 21.1292 59.805 19.3628 59.805 17.1909C59.805 15.0195 58.0382 13.2527 55.8668 13.2527ZM41.7943 13.0301C42.1753 12.6491 42.6753 12.4591 43.1757 12.4591C43.6757 12.4591 44.1756 12.6495 44.5566 13.0301C44.677 13.1509 44.7765 13.2843 44.8589 13.4251C43.5875 13.8147 42.5885 14.8323 42.2233 16.1145C42.0699 16.029 41.9247 15.9226 41.7943 15.7923C41.0328 15.0304 41.0328 13.7916 41.7943 13.0301ZM55.8668 18.8126H53.5448L53.5466 15.5693H55.8668C56.7609 15.5693 57.4884 16.2969 57.4884 17.1909C57.4884 18.0849 56.7609 18.8126 55.8668 18.8126Z" fill="#3BB77E"/>
<path d="M19.195 33.2718C19.3376 33.7844 19.8032 34.1197 20.3099 34.1197C20.4131 34.1197 20.5176 34.1061 20.6212 34.0772L32.5119 30.7674C33.1281 30.5959 33.4887 29.9571 33.3173 29.3408C33.1458 28.725 32.5074 28.3644 31.8907 28.5358L20 31.8452C19.3842 32.0171 19.0236 32.6555 19.195 33.2718Z" fill="#3BB77E"/>
<path d="M24.4301 34.8004C23.7848 35.4457 23.4297 36.3031 23.4297 37.2157C23.4297 38.1279 23.7848 38.9853 24.4301 39.6305C25.0961 40.2961 25.9703 40.6291 26.8448 40.6291C27.7194 40.6291 28.5941 40.2961 29.2601 39.6305C30.5916 38.2989 30.5916 36.132 29.2601 34.8004C27.9285 33.4689 25.7616 33.4689 24.4301 34.8004ZM27.6217 37.9921C27.1932 38.4206 26.4965 38.4206 26.068 37.9921C25.8603 37.7849 25.7463 37.5089 25.7463 37.2153C25.7463 36.922 25.8607 36.646 26.068 36.4384C26.2824 36.2243 26.5638 36.1171 26.8448 36.1171C27.1263 36.1171 27.4077 36.2243 27.6217 36.4384C28.0502 36.8668 28.0502 37.5641 27.6217 37.9921Z" fill="#3BB77E"/>
<path d="M29.8326 27.9041C31.1642 26.5721 31.1642 24.4057 29.8326 23.0741C29.1874 22.4289 28.3295 22.0737 27.4173 22.0737C26.5052 22.0737 25.6473 22.4289 25.0026 23.0741C23.671 24.4057 23.671 26.5721 25.0026 27.9041C25.6686 28.5697 26.5428 28.9027 27.4173 28.9027C28.292 28.9027 29.1666 28.5697 29.8326 27.9041ZM26.6405 24.712C26.8482 24.5043 27.1242 24.3903 27.4173 24.3903C27.711 24.3903 27.987 24.5043 28.1942 24.712C28.6227 25.1405 28.6227 25.8373 28.1942 26.2658C27.7662 26.6942 27.069 26.6942 26.6405 26.2658C26.2124 25.8373 26.2124 25.1405 26.6405 24.712Z" fill="#3BB77E"/>
<path d="M12.0189 30.8784C11.5665 30.4259 10.833 30.4259 10.3805 30.8784L7.08934 34.1696C6.87216 34.3868 6.75 34.6813 6.75 34.9885C6.75 35.2958 6.87216 35.5903 7.08934 35.8075L21.7776 50.4958C22.0034 50.7215 22.3002 50.8347 22.5965 50.8347C22.8929 50.8347 23.1893 50.7215 23.4156 50.4958L45.3761 28.5347C45.8286 28.0822 45.8286 27.3487 45.3761 26.8963L30.6884 12.2085C30.4712 11.9913 30.1766 11.8691 29.8694 11.8691C29.5622 11.8691 29.2676 11.9913 29.0505 12.2085L16.9331 24.3258C16.4807 24.7783 16.4807 25.5118 16.9331 25.9642C17.3851 26.4162 18.1186 26.4162 18.571 25.9642L29.8694 14.6658L42.9193 27.7157L22.5965 48.0384L9.54663 34.9885L12.0189 32.5163C12.4709 32.0639 12.4714 31.3308 12.0189 30.8784Z" fill="#3BB77E"/>
<path d="M45.1662 33.8125C44.8612 33.8125 44.5626 33.9364 44.3472 34.1518C44.1318 34.3672 44.0078 34.6663 44.0078 34.9708C44.0078 35.2753 44.1318 35.5744 44.3472 35.7898C44.5626 36.0052 44.8612 36.1291 45.1662 36.1291C45.4706 36.1291 45.7692 36.0052 45.9851 35.7898C46.2005 35.5744 46.3244 35.2753 46.3244 34.9708C46.3244 34.6663 46.2005 34.3672 45.9851 34.1518C45.7692 33.9364 45.4706 33.8125 45.1662 33.8125Z" fill="#3BB77E"/>
<path d="M15.2971 29.2395C15.5138 29.0242 15.6369 28.7264 15.6369 28.4205C15.6369 28.116 15.5138 27.8183 15.2971 27.6015C15.0817 27.3862 14.784 27.2622 14.4786 27.2622C14.1736 27.2622 13.875 27.3862 13.6597 27.6015C13.4438 27.8169 13.3203 28.116 13.3203 28.4205C13.3203 28.7264 13.4438 29.0242 13.6597 29.2395C13.8759 29.4562 14.1736 29.5788 14.4786 29.5788C14.784 29.5788 15.0817 29.4562 15.2971 29.2395Z" fill="#3BB77E"/>
</g>
</g>
</g>
<defs>
<clipPath id="clip0_6511_1798">
<rect width="60" height="60" fill="white" transform="translate(0.5 0.919922)"/>
</clipPath>
<clipPath id="clip1_6511_1798">
<rect width="60" height="60" fill="white" transform="translate(0.5 0.919922)"/>
</clipPath>
</defs>
</svg>

<svg xmlns="http://www.w3.org/2000/svg" width="61" height="61" fill="none"><g clip-path="url(#a)"><g clip-path="url(#b)"><mask id="c" width="60" height="61" x="0" y="0" maskUnits="userSpaceOnUse" style="mask-type:luminance"><path fill="#fff" d="M59.805.92H.5v59.305h59.305z"/></mask><g mask="url(#c)"><path fill="#FDC040" d="M38.213 5.206H29.64L19.356 15.49l5.142 3 5.143-5.143 10.715 10.715 3.857 4.714 5.571.857 2.572-4.714V8.634L48.07 5.206z"/><path fill="#3BB77E" d="M55.867 13.253h-2.319l.002-4.146a5.053 5.053 0 0 0-5.045-5.05l-17.599-.01h-.002c-1.002 0-1.944.39-2.652 1.099L1.978 31.419A5.01 5.01 0 0 0 .5 34.99c0 1.348.525 2.615 1.478 3.569l17.05 17.05a5.03 5.03 0 0 0 3.57 1.476 5.03 5.03 0 0 0 3.57-1.476l16.541-16.542a1.158 1.158 0 1 0-1.638-1.638L24.529 53.97a2.734 2.734 0 0 1-3.862 0L3.617 36.92a2.71 2.71 0 0 1-.8-1.931c0-.73.284-1.416.8-1.932L29.89 6.784c.27-.27.63-.42 1.014-.42h.001l17.599.01a2.734 2.734 0 0 1 2.73 2.732l-.006 9.707h-5.217c-.45 0-.856-.184-1.15-.48a4.3 4.3 0 0 0 1.334-.903 4.275 4.275 0 0 0 0-6.038 4.274 4.274 0 0 0-6.039 0 4.275 4.275 0 0 0 0 6.038 4.25 4.25 0 0 0 2.176 1.165 3.945 3.945 0 0 0 3.679 2.534h5.216l-.003 5.553c0 .383-.15.743-.42 1.013l-3.18 3.18a1.158 1.158 0 0 0 1.637 1.639l3.18-3.18a3.73 3.73 0 0 0 1.1-2.65l.002-5.555h2.324a3.943 3.943 0 0 0 3.938-3.938 3.943 3.943 0 0 0-3.938-3.938m-14.073-.223a1.95 1.95 0 0 1 1.382-.57 1.95 1.95 0 0 1 1.683.965 3.95 3.95 0 0 0-2.636 2.69 2 2 0 0 1-.429-.323c-.761-.762-.761-2 0-2.762m14.073 5.783h-2.322l.002-3.244h2.32c.894 0 1.621.728 1.621 1.622s-.727 1.622-1.621 1.622"/><path fill="#3BB77E" d="M19.195 33.272a1.16 1.16 0 0 0 1.426.805l11.89-3.31a1.159 1.159 0 0 0-.62-2.231L20 31.846c-.616.171-.976.81-.805 1.426M24.43 34.8c-.645.646-1 1.503-1 2.416 0 .912.355 1.77 1 2.414.666.666 1.54 1 2.415 1 .874 0 1.75-.334 2.415-1a3.42 3.42 0 0 0 0-4.83 3.42 3.42 0 0 0-4.83 0m3.192 3.192a1.1 1.1 0 0 1-1.554-1.554 1.096 1.096 0 0 1 1.554 0 1.1 1.1 0 0 1 0 1.554M29.833 27.904a3.42 3.42 0 0 0 0-4.83 3.4 3.4 0 0 0-2.416-1c-.912 0-1.77.355-2.414 1a3.42 3.42 0 0 0 0 4.83c.666.666 1.54.999 2.414.999s1.75-.333 2.416-.999m-3.192-3.192c.207-.208.483-.322.776-.322s.57.114.777.322a1.1 1.1 0 0 1-1.553 1.554 1.1 1.1 0 0 1 0-1.554"/><path fill="#3BB77E" d="M12.019 30.878a1.16 1.16 0 0 0-1.639 0L7.09 34.17a1.16 1.16 0 0 0 0 1.637l14.688 14.689a1.156 1.156 0 0 0 1.638 0l21.96-21.961a1.16 1.16 0 0 0 0-1.639L30.688 12.21a1.16 1.16 0 0 0-1.637 0L16.932 24.326a1.159 1.159 0 0 0 1.638 1.638l11.298-11.298 13.05 13.05-20.322 20.322-13.05-13.05 2.472-2.472a1.16 1.16 0 0 0 0-1.638M45.166 33.813c-.305 0-.603.123-.819.339-.215.215-.34.514-.34.819s.125.603.34.819.514.34.82.34c.304 0 .602-.125.818-.34s.34-.515.34-.82-.125-.603-.34-.818a1.17 1.17 0 0 0-.819-.34"/><path fill="#3BB77E" d="M15.297 29.24a1.16 1.16 0 0 0 0-1.638 1.17 1.17 0 0 0-.818-.34c-.305 0-.604.124-.82.34-.215.215-.339.514-.339.819a1.163 1.163 0 0 0 1.159 1.158c.305 0 .603-.123.818-.34"/></g></g></g><defs><clipPath id="a"><path fill="#fff" d="M.5.92h60v60H.5z"/></clipPath><clipPath id="b"><path fill="#fff" d="M.5.92h60v60H.5z"/></clipPath></defs></svg>
